src/distro-icons/rockylinux.svg

<svg width="512" height="512" fill="none" xmlns="http://www.w3.org/2000/svg">
<path style="fill:#fff;stroke-width:12.1777;stroke-dasharray:12.1777,12.1777;stop-color:#000;stroke:none" d="M333.223 175.889 73.998 435.115a256 256 0 0 0 75.451 52.77L333.223 304.11l117.062 117.065a256 256 0 0 0 46.951-81.274z"/>
<path d="M497.755 340.42C506.985 313.988 512 285.58 512 256 512 114.615 397.385 0 256 0 114.616 0 0 114.615 0 256c0 69.958 28.061 133.362 73.542 179.57l259.68-259.681z" fill="#10b981" style="stroke-width:2;stroke:none"/>
<path d="m450.285 421.176-117.77-117.77-184.428 184.428c32.611 15.058 68.928 23.46 107.206 23.46 78.102 0 148.036-34.976 194.992-90.118z" fill="#10b981" style="stroke-width:2;stroke:none"/>
</svg>

<svg width="512" height="512" viewBox="0 0 512 512" fill="none" xmlns="http://www.w3.org/2000/svg">
<circle cx="256" cy="256" r="256" fill="white"/>
<path d="M333.223 175.889L73.998 435.115C95.7525 457.12 121.316 475 149.449 487.885L333.223 304.11L450.285 421.175C470.811 397.209 486.728 369.654 497.236 339.901L333.223 175.889Z" fill="white"/>
<path d="M497.755 340.42C506.985 313.988 512 285.58 512 256C512 114.615 397.385 0 256 0C114.616 0 0 114.615 0 256C0 325.958 28.061 389.362 73.542 435.57L333.222 175.889L497.755 340.42Z" fill="#10B981"/>
<path d="M450.285 421.176L332.515 303.406L148.087 487.834C180.698 502.892 217.015 511.294 255.293 511.294C333.395 511.294 403.329 476.318 450.285 421.176V421.176Z" fill="#10B981"/>
</svg>
